X:1
T:O Vergine Rei
T:Giovanni Animuccio
T:Source : Secondo libro delle Laude spirituali a tre et a quattro voci---Roma---A.Gardano---1583. Editor : André Vierendeels (28/11/17). Notes : Original clefs : G2, C2, C3 Editorial accidentals above the staff Music compiled by Francisco Soto de Langa
T:O Vergine Reina
T:©
T:©
C:Giovanni Animuccio
Z:©
%%score [ 1 2 3 ]
L:1/8
Q:1/4=120
M:2/2
K:C
V:1 treble nm="Soprano 1" snm="S 1"
V:2 treble nm="Soprano 2" snm="S 2"
V:3 treble-8 nm="Tenor" snm="T"
V:1
"^1)" d8 | e6 e2 | c2 c2 d4 | e4 c4 | c2 B2 A2 G2 | A4 G4 :: A2 AA d2 d2 | B4 G2 c2 | A4 A2 d2- | %9
w: O|Ver- *|gi- ne Rei-|na, O|Rei- * na de|cie- li,|te ri- ve- ren- te'in-|chi- na la|tur- ba de|
w: O|de gl'An-|ge- li don-|na, O|de gl'huo- mi- ni|ma- dre,|O so- sten- go'e co-|lon- na di|quan- te'o- pre|
 d2 d2 e4 | d4 z2 c2 | e2 e2 d2 d2 | c4 B2 d2 | d3 c B2 B2 | A4 !fermata!G4 :| %15
w: _ fe- de-|li, quant'|un- que par- go-|let- ta sei|nel- le fa- scie|stret- ta.|
w: _ leg- gia-|dre, u-|scir mai del con-|cer- to del|di- vi- no'Ar- chi-|tet- to.|
V:2
"^2)""^1)" B8 | c6 c2 | A2 G2 AGAB | c4 A4 | A2 G2 ^F2 G2- | G2 ^F2 G4 :: F2 FF ^F2 F2 | G4 E2 A2 | %8
w: O|Ver- *|gi- ne Rei- * * *|na, O|Rei- * na de|_ cie- li,|te ri- ve- ren- te'in-|chi- na la|
w: Tu|giar- din|ben fer- ra- * * *|to, tu|fon- te d'ac- qua|_ vi- va,|tu ca- stel ben fon-|da- to, tu|
 F4 E2 F2- | FD d4 c2 | d4 z2 A2 | G2 G2 F2 G2- | G2 ^F2 G2 B2 | B2 A2 G2 G2- | %14
w: tur- ba de-|* fe- de- *|li, quant'|un- que par- go-|* let- ta sei|nel- le fa- scie|
w: spe- ti- o-|* sa'o- li- *|va, tu|spe- chio ri- lu-|* cen- te, tu|glo- ria di tua|
 G2 ^F2 !fermata!G4 :| %15
w: _ stret- ta.|
w: _ gen- te.|
V:3
"^3)""^1)""^4)" g8 | c6 c2 | f2 e2 d4 | c4 F4 | F2 G2 d2 e2 | d4 G4 :: d2 dd B2 B2 | G4 c2 A2 | %8
w: O|Ver- gi-|ne _ Rei-|na, O|Rei- * na de|cie- li,|te ri- ve- ren- te'in-|chi- na la|
w: Guar-|da- ne|ti pre- ghia-|mo, dol-|ce'a- vo- ca- ta|no- stra,|fin che'l no- vel- lo'A-|da- mo, es-|
 d4 c2 _B2- | B2 _B2 A4 |"^#" d4 z2 A2 | c2 c2 d2 G2 | A4 G2 g2 | g2 d2 e2 g2 | d4 G4 :| %15
w: tur- ba de|_ fe- de-|li, quant'|un- que par- go-|let- ta sei|nel- le fa- scie|stret- ta.|
w: ca del- le-|è tue chio-|stra, cre-|sciè, cre- sciè'o fan-|ciul- la che|sen- za te siam|nul- la.|

